storage/app/icons/phosphoricons/thin/replit-logo-thin.svg

<svg xmlns="http://www.w3.org/2000/svg" fill="currentColor" viewBox="0 0 256 256"><path d="M216 92h-68V40a12 12 0 0 0-12-12H72a12 12 0 0 0-12 12v48a12 12 0 0 0 12 12h68v56H72a12 12 0 0 0-12 12v48a12 12 0 0 0 12 12h64a12 12 0 0 0 12-12v-52h68a12 12 0 0 0 12-12v-48a12 12 0 0 0-12-12m-76 124a4 4 0 0 1-4 4H72a4 4 0 0 1-4-4v-48a4 4 0 0 1 4-4h68Zm0-124H72a4 4 0 0 1-4-4V40a4 4 0 0 1 4-4h64a4 4 0 0 1 4 4Zm80 60a4 4 0 0 1-4 4h-68v-56h68a4 4 0 0 1 4 4Z"/></svg>

<svg xmlns="http://www.w3.org/2000/svg" viewBox="0 0 256 256" fill="currentColor"><path d="M216,92H148V40a12,12,0,0,0-12-12H72A12,12,0,0,0,60,40V88a12,12,0,0,0,12,12h68v56H72a12,12,0,0,0-12,12v48a12,12,0,0,0,12,12h64a12,12,0,0,0,12-12V164h68a12,12,0,0,0,12-12V104A12,12,0,0,0,216,92ZM140,216a4,4,0,0,1-4,4H72a4,4,0,0,1-4-4V168a4,4,0,0,1,4-4h68Zm0-124H72a4,4,0,0,1-4-4V40a4,4,0,0,1,4-4h64a4,4,0,0,1,4,4Zm80,60a4,4,0,0,1-4,4H148V100h68a4,4,0,0,1,4,4Z"/></svg>
